assets/svg/networks/wallet_bnb.svg

<svg width="36" height="36" viewBox="0 0 36 36" fill="none" xmlns="http://www.w3.org/2000/svg">
<g clip-path="url(#clip0_47849_185485)">
<path d="M0 12C0 5.37258 5.37258 0 12 0H24C30.6274 0 36 5.37258 36 12V24C36 30.6274 30.6274 36 24 36H12C5.37258 36 0 30.6274 0 24V12Z" fill="#14151A"/>
<path d="M11.863 10.1947L18.0006 6.75135L24.137 10.1947L21.8872 11.4693L18.0006 9.2948L14.1196 11.4693L11.863 10.1947ZM24.137 14.5448L21.8872 13.2692L18.0006 15.4448L14.1196 13.2692L11.863 14.5448V17.0871L15.7383 19.2627V23.6061L17.9994 24.8817L20.256 23.6061V19.2639L24.137 17.0883V14.5448ZM24.137 21.4383V18.8881L21.8872 20.1627V22.7061L24.137 21.4383ZM25.7434 22.3383L21.8624 24.506V27.0562L28 23.6061V16.7193L25.7434 17.9882V22.3383ZM23.4879 12.3692L25.7378 13.6449V16.1872L27.9989 14.9194V12.3692L25.7434 11.0947L23.4879 12.376V12.3692ZM15.7372 25.4318V27.9741L18.0006 29.2498L20.256 27.9753V25.4363L18.0006 26.7075L15.744 25.4318H15.7372ZM11.8641 21.4316L14.114 22.7061V20.1638L11.8641 18.8881V21.4383V21.4316ZM15.7395 12.3692L18.0006 13.6449L20.2572 12.3692L18.0006 11.0947L15.744 12.376L15.7395 12.3692ZM10.2566 13.6449L12.5132 12.3692L10.2633 11.0947L8 12.376V14.9262L10.2555 16.1951L10.2566 13.6449ZM10.2566 17.9882L8 16.7193V23.6061L14.1365 27.0562V24.5004L10.2633 22.3315V17.9815L10.2566 17.9882Z" fill="#E8BB41"/>
</g>
<defs>
<clipPath id="clip0_47849_185485">
<rect width="36" height="36" fill="white"/>
</clipPath>
</defs>
</svg>

<svg xmlns="http://www.w3.org/2000/svg" width="36" height="36" fill="none"><g clip-path="url(#a)"><path fill="#14151A" d="M0 12C0 5.373 5.373 0 12 0h12c6.627 0 12 5.373 12 12v12c0 6.627-5.373 12-12 12H12C5.373 36 0 30.627 0 24z"/><path fill="#E8BB41" d="m11.863 10.195 6.138-3.444 6.136 3.444-2.25 1.274-3.886-2.174-3.881 2.174zm12.274 4.35-2.25-1.276-3.886 2.176-3.881-2.176-2.257 1.276v2.542l3.875 2.176v4.343L18 24.882l2.257-1.276v-4.342l3.881-2.176zm0 6.893v-2.55l-2.25 1.275v2.543zm1.606.9-3.88 2.168v2.55L28 23.606V16.72l-2.257 1.27zm-2.255-9.969 2.25 1.276v2.542l2.26-1.268v-2.55l-2.255-1.274-2.255 1.281zm-7.75 13.063v2.542L18 29.25l2.255-1.275v-2.539l-2.255 1.271-2.257-1.275zm-3.874-4 2.25 1.274v-2.542l-2.25-1.276v2.55zm3.875-9.063 2.262 1.276 2.256-1.276-2.256-1.274-2.257 1.281zm-5.482 1.276 2.256-1.276-2.25-1.274L8 12.376v2.55l2.255 1.27zm0 4.343L8 16.72v6.887l6.137 3.45V24.5l-3.874-2.169v-4.35z"/></g><defs><clipPath id="a"><path fill="#fff" d="M0 0h36v36H0z"/></clipPath></defs></svg>
